assets/companies/light/discord.svg

<svg width="20" height="20" viewBox="0 0 20 20" fill="none" xmlns="http://www.w3.org/2000/svg">
<g opacity="0.5">
<path d="M16.9308 3.4629C15.6561 2.87799 14.2892 2.44707 12.8599 2.20025C12.8339 2.19549 12.8079 2.20739 12.7945 2.2312C12.6187 2.54388 12.4239 2.9518 12.2876 3.27242C10.7503 3.04228 9.22099 3.04228 7.71527 3.27242C7.57887 2.94467 7.37707 2.54388 7.20048 2.2312C7.18707 2.20819 7.16107 2.19629 7.13504 2.20025C5.70659 2.44628 4.33963 2.87721 3.06411 3.4629C3.05307 3.46766 3.04361 3.4756 3.03732 3.48591C0.444493 7.35954 -0.265792 11.138 0.0826501 14.8695C0.0842267 14.8878 0.0944749 14.9053 0.108665 14.9164C1.81934 16.1726 3.47642 16.9353 5.10273 17.4408C5.12876 17.4488 5.15634 17.4393 5.1729 17.4178C5.55761 16.8925 5.90054 16.3385 6.19456 15.756C6.21192 15.7219 6.19535 15.6814 6.15989 15.6679C5.61594 15.4616 5.098 15.21 4.59977 14.9243C4.56037 14.9013 4.55721 14.8449 4.59347 14.8179C4.69831 14.7394 4.80318 14.6576 4.9033 14.5751C4.92141 14.56 4.94665 14.5568 4.96794 14.5664C8.24107 16.0608 11.7846 16.0608 15.0191 14.5664C15.0404 14.5561 15.0657 14.5592 15.0846 14.5743C15.1847 14.6568 15.2895 14.7394 15.3952 14.8179C15.4314 14.8449 15.4291 14.9013 15.3897 14.9243C14.8914 15.2155 14.3735 15.4616 13.8288 15.6671C13.7933 15.6806 13.7775 15.7219 13.7949 15.756C14.0952 16.3377 14.4381 16.8917 14.8157 17.417C14.8315 17.4393 14.8599 17.4488 14.8859 17.4408C16.5201 16.9353 18.1772 16.1726 19.8879 14.9164C19.9028 14.9053 19.9123 14.8886 19.9139 14.8703C20.3309 10.5562 19.2154 6.80878 16.9568 3.4867C16.9513 3.4756 16.9419 3.46766 16.9308 3.4629ZM6.68335 12.5974C5.69792 12.5974 4.88594 11.6927 4.88594 10.5816C4.88594 9.47056 5.68217 8.56585 6.68335 8.56585C7.69239 8.56585 8.49651 9.4785 8.48073 10.5816C8.48073 11.6927 7.68451 12.5974 6.68335 12.5974ZM13.329 12.5974C12.3435 12.5974 11.5316 11.6927 11.5316 10.5816C11.5316 9.47056 12.3278 8.56585 13.329 8.56585C14.338 8.56585 15.1421 9.4785 15.1264 10.5816C15.1264 11.6927 14.338 12.5974 13.329 12.5974Z" fill="#86848D"/>
</g>
</svg>

<svg xmlns="http://www.w3.org/2000/svg" width="20" height="20" fill="none" viewBox="0 0 20 20"><path fill="#86848D" d="M16.93 3.463A16.5 16.5 0 0 0 12.86 2.2a.06.06 0 0 0-.066.031c-.175.313-.37.72-.506 1.041a15.2 15.2 0 0 0-4.573 0 11 11 0 0 0-.515-1.04.06.06 0 0 0-.065-.032 16.5 16.5 0 0 0-4.07 1.263.06.06 0 0 0-.028.023C.444 7.36-.266 11.138.083 14.87a.07.07 0 0 0 .026.046 16.6 16.6 0 0 0 4.994 2.525.06.06 0 0 0 .07-.023q.58-.789 1.022-1.662a.063.063 0 0 0-.035-.088 11 11 0 0 1-1.56-.744.064.064 0 0 1-.007-.106q.159-.119.31-.243a.06.06 0 0 1 .065-.009c3.273 1.495 6.817 1.495 10.051 0a.06.06 0 0 1 .066.008q.15.125.31.244a.064.064 0 0 1-.005.106q-.747.437-1.561.743a.064.064 0 0 0-.034.089 13 13 0 0 0 1.02 1.661.06.06 0 0 0 .07.024 16.5 16.5 0 0 0 5.003-2.525.07.07 0 0 0 .026-.046c.417-4.314-.699-8.061-2.957-11.383a.05.05 0 0 0-.026-.024M6.684 12.597c-.985 0-1.797-.904-1.797-2.015s.796-2.016 1.797-2.016c1.01 0 1.814.912 1.798 2.016 0 1.11-.796 2.015-1.798 2.015m6.646 0c-.985 0-1.797-.904-1.797-2.015s.796-2.016 1.797-2.016c1.009 0 1.813.912 1.797 2.016 0 1.11-.788 2.015-1.797 2.015" opacity=".5"/></svg>
